systematic/svg/Sony - PlayStation SCPH-100.svg

<?xml version="1.0" encoding="UTF-8" standalone="no"?>
<svg
   xmlns:dc="http://purl.org/dc/elements/1.1/"
   xmlns:cc="http://creativecommons.org/ns#"
   xmlns:rdf="http://www.w3.org/1999/02/22-rdf-syntax-ns#"
   xmlns:svg="http://www.w3.org/2000/svg"
   xmlns="http://www.w3.org/2000/svg"
   viewBox="0 0 320 320"
   height="320"
   width="320"
   xml:space="preserve"
   version="1.1"
   id="svg2"><metadata
     id="metadata8"><rdf:RDF><cc:Work
         rdf:about=""><dc:format>image/svg+xml</dc:format><dc:type
           rdf:resource="http://purl.org/dc/dcmitype/StillImage" /></cc:Work></rdf:RDF></metadata><defs
     id="defs6"><clipPath
       id="clipPath16"
       clipPathUnits="userSpaceOnUse"><path
         id="path18"
         d="M 0,256 256,256 256,0 0,0 0,256 Z" /></clipPath><clipPath
       id="clipPath24"
       clipPathUnits="userSpaceOnUse"><path
         id="path26"
         d="m 4.03647,223.837 247.92753,0 0,-191.6738 -247.92753,0 0,191.6738 z" /></clipPath></defs><g
     transform="matrix(1.25,0,0,-1.25,0,320)"
     id="g10"><g
       id="g12"><g
         clip-path="url(#clipPath16)"
         id="g14"><g
           id="g20"><g
             id="g22" /><g
             id="g28"><g
               style="opacity:0.5"
               id="g30"
               clip-path="url(#clipPath24)"><g
                 id="g32"
                 transform="translate(128,223.8369)"><path
                   id="path34"
                   style="fill:#ffffff;fill-opacity:1;fill-rule:nonzero;stroke:none"
                   d="m 0,0 c -3.127,0 -6.298,-0.057 -9.422,-0.168 l -73.442,-2.624 c -10.054,-0.358 -19.532,-4.451 -26.688,-11.522 -7.156,-7.071 -11.361,-16.5 -11.839,-26.549 l -2.527,-53.071 c -0.061,-1.263 -0.061,-2.543 0,-3.805 l 2.527,-53.072 c 0.478,-10.048 4.683,-19.477 11.839,-26.549 7.156,-7.072 16.634,-11.163 26.688,-11.523 l 73.442,-2.623 c 3.126,-0.111 6.296,-0.168 9.422,-0.168 3.126,0 6.297,0.057 9.423,0.168 l 73.441,2.623 c 10.054,0.36 19.532,4.451 26.689,11.523 7.155,7.072 11.36,16.501 11.839,26.549 l 2.526,53.072 c 0.061,1.262 0.061,2.542 0,3.805 l -2.526,53.071 c -0.479,10.049 -4.684,19.478 -11.839,26.549 -7.157,7.071 -16.635,11.164 -26.689,11.522 L 9.423,-0.168 C 6.298,-0.057 3.128,0 0,0" /></g></g></g></g><g
           transform="translate(210.5791,42.9492)"
           id="g36"><path
             id="path38"
             style="fill:#d9d9d9;fill-opacity:1;fill-rule:nonzero;stroke:none"
             d="m 0,0 -73.442,-2.623 c -6.089,-0.218 -12.185,-0.218 -18.274,0 L -165.158,0 c -16.63,0.594 -30.03,13.835 -30.821,30.458 l -2.528,53.07 c -0.048,1.015 -0.048,2.031 0,3.045 l 2.528,53.071 c 0.791,16.622 14.191,29.864 30.821,30.458 l 73.442,2.623 c 6.089,0.217 12.185,0.217 18.274,0 L 0,170.102 c 16.63,-0.594 30.029,-13.836 30.821,-30.458 l 2.528,-53.071 c 0.047,-1.014 0.047,-2.03 0,-3.045 L 30.821,30.458 C 30.029,13.835 16.63,0.594 0,0" /></g><g
           transform="translate(148,47.8369)"
           id="g40"><path
             id="path42"
             style="fill:#b3b3b3;fill-opacity:1;fill-rule:nonzero;stroke:none"
             d="m 0,0 -20,0 -20,0 0,-7.286 10.863,-0.388 c 6.089,-0.218 12.185,-0.218 18.274,0 L 0,-7.286 0,0 Z" /></g><g
           transform="translate(203.293,75.293)"
           id="g44"><path
             id="path46"
             style="fill:#b3b3b3;fill-opacity:1;fill-rule:nonzero;stroke:none"
             d="m 0,0 -8,8 1.414,1.414 8,-8 L 0,0 Z" /></g><g
           transform="translate(236,70)"
           id="g48"><path
             id="path50"
             style="fill:#d9d9d9;fill-opacity:1;fill-rule:nonzero;stroke:none"
             d="m 0,0 c 0,-9.941 -8.059,-18 -18,-18 -9.941,0 -18,8.059 -18,18 0,9.941 8.059,18 18,18 C -8.059,18 0,9.941 0,0" /></g><g
           transform="translate(218,90)"
           id="g52"><path
             id="path54"
             style="fill:#bfbfbf;fill-opacity:1;fill-rule:nonzero;stroke:none"
             d="m 0,0 c -11.028,0 -20,-8.972 -20,-20 0,-11.028 8.972,-20 20,-20 11.028,0 20,8.972 20,20 C 20,-8.972 11.028,0 0,0 m 0,-2 c 9.941,0 18,-8.059 18,-18 0,-9.941 -8.059,-18 -18,-18 -9.941,0 -18,8.059 -18,18 0,9.941 8.059,18 18,18" /></g><g
           transform="translate(187.2285,213.7217)"
           id="g56"><path
             id="path58"
             style="fill:#b3b3b3;fill-opacity:1;fill-rule:nonzero;stroke:none"
             d="M 0,0 3.777,-33.995 5.766,-33.774 2.021,-0.072 0,0 Z" /></g><g
           transform="translate(36,44.5615)"
           id="g60"><path
             id="path62"
             style="fill:#00ff00;fill-opacity:1;fill-rule:nonzero;stroke:none"
             d="m 0,0 c 1.297,-0.454 2.632,-0.825 4,-1.11 l 0,8.385 -4,0 L 0,0 Z" /></g><g
           transform="translate(64.9937,179.7266)"
           id="g64"><path
             id="path66"
             style="fill:#b3b3b3;fill-opacity:1;fill-rule:nonzero;stroke:none"
             d="M 0,0 3.777,33.995 1.757,33.923 -1.987,0.221 0,0 Z" /></g><g
           transform="translate(56,70)"
           id="g68"><path
             id="path70"
             style="fill:#d9d9d9;fill-opacity:1;fill-rule:nonzero;stroke:none"
             d="m 0,0 c 0,-9.941 -8.059,-18 -18,-18 -9.941,0 -18,8.059 -18,18 0,9.941 8.059,18 18,18 C -8.059,18 0,9.941 0,0" /></g><g
           transform="translate(38,90)"
           id="g72"><path
             id="path74"
             style="fill:#bfbfbf;fill-opacity:1;fill-rule:nonzero;stroke:none"
             d="m 0,0 c -11.028,0 -20,-8.972 -20,-20 0,-11.028 8.972,-20 20,-20 11.028,0 20,8.972 20,20 C 20,-8.972 11.028,0 0,0 m 0,-2 c 9.941,0 18,-8.059 18,-18 0,-9.941 -8.059,-18 -18,-18 -9.941,0 -18,8.059 -18,18 0,9.941 8.059,18 18,18" /></g><g
           transform="translate(210,128)"
           id="g76"><path
             id="path78"
             style="fill:#d9d9d9;fill-opacity:1;fill-rule:nonzero;stroke:none"
             d="m 0,0 c 0,-45.287 -36.713,-82 -82,-82 -45.287,0 -82,36.713 -82,82 0,45.287 36.713,82 82,82 C -36.713,82 0,45.287 0,0" /></g><g
           transform="translate(128,212)"
           id="g80"><path
             id="path82"
             style="fill:#bfbfbf;fill-opacity:1;fill-rule:nonzero;stroke:none"
             d="m 0,0 c -46.318,0 -84,-37.682 -84,-84 0,-46.317 37.682,-84 84,-84 46.317,0 84,37.683 84,84 C 84,-37.682 46.317,0 0,0 m 0,-2 c 45.287,0 82,-36.713 82,-82 0,-45.287 -36.713,-82 -82,-82 -45.287,0 -82,36.713 -82,82 0,45.287 36.713,82 82,82" /></g><g
           transform="translate(183,86)"
           id="g84"><path
             id="path86"
             style="fill:#bfbfbf;fill-opacity:1;fill-rule:nonzero;stroke:none"
             d="m 0,0 c 0,-0.553 -0.447,-1 -1,-1 -0.553,0 -1,0.447 -1,1 0,0.553 0.447,1 1,1 0.553,0 1,-0.447 1,-1" /></g><g
           transform="translate(187,90)"
           id="g88"><path
             id="path90"
             style="fill:#bfbfbf;fill-opacity:1;fill-rule:nonzero;stroke:none"
             d="m 0,0 c 0,-0.553 -0.447,-1 -1,-1 -0.553,0 -1,0.447 -1,1 0,0.553 0.447,1 1,1 0.553,0 1,-0.447 1,-1" /></g><g
           transform="translate(191,94)"
           id="g92"><path
             id="path94"
             style="fill:#bfbfbf;fill-opacity:1;fill-rule:nonzero;stroke:none"
             d="m 0,0 c 0,-0.553 -0.447,-1 -1,-1 -0.553,0 -1,0.447 -1,1 0,0.553 0.447,1 1,1 0.553,0 1,-0.447 1,-1" /></g><g
           transform="translate(194,99)"
           id="g96"><path
             id="path98"
             style="fill:#bfbfbf;fill-opacity:1;fill-rule:nonzero;stroke:none"
             d="m 0,0 c 0,-0.553 -0.447,-1 -1,-1 -0.553,0 -1,0.447 -1,1 0,0.553 0.447,1 1,1 0.553,0 1,-0.447 1,-1" /></g><g
           transform="translate(187,82)"
           id="g100"><path
             id="path102"
             style="fill:#bfbfbf;fill-opacity:1;fill-rule:nonzero;stroke:none"
             d="m 0,0 c 0,-0.553 -0.447,-1 -1,-1 -0.553,0 -1,0.447 -1,1 0,0.553 0.447,1 1,1 0.553,0 1,-0.447 1,-1" /></g><g
           transform="translate(191,86)"
           id="g104"><path
             id="path106"
             style="fill:#bfbfbf;fill-opacity:1;fill-rule:nonzero;stroke:none"
             d="m 0,0 c 0,-0.553 -0.447,-1 -1,-1 -0.553,0 -1,0.447 -1,1 0,0.553 0.447,1 1,1 0.553,0 1,-0.447 1,-1" /></g><g
           transform="translate(195,90)"
           id="g108"><path
             id="path110"
             style="fill:#bfbfbf;fill-opacity:1;fill-rule:nonzero;stroke:none"
             d="m 0,0 c 0,-0.553 -0.447,-1 -1,-1 -0.553,0 -1,0.447 -1,1 0,0.553 0.447,1 1,1 0.553,0 1,-0.447 1,-1" /></g><g
           transform="translate(198,95)"
           id="g112"><path
             id="path114"
             style="fill:#bfbfbf;fill-opacity:1;fill-rule:nonzero;stroke:none"
             d="m 0,0 c 0,-0.553 -0.447,-1 -1,-1 -0.553,0 -1,0.447 -1,1 0,0.553 0.447,1 1,1 0.553,0 1,-0.447 1,-1" /></g></g></g></g></svg>

<?xml version="1.0" encoding="UTF-8" standalone="no"?>
<svg
   xmlns:dc="http://purl.org/dc/elements/1.1/"
   xmlns:cc="http://creativecommons.org/ns#"
   xmlns:rdf="http://www.w3.org/1999/02/22-rdf-syntax-ns#"
   xmlns:svg="http://www.w3.org/2000/svg"
   xmlns="http://www.w3.org/2000/svg"
   viewBox="0 0 341.33334 341.33334"
   height="256"
   width="256"
   xml:space="preserve"
   id="svg2"
   version="1.1"><metadata
     id="metadata8"><rdf:RDF><cc:Work
         rdf:about=""><dc:format>image/svg+xml</dc:format><dc:type
           rdf:resource="http://purl.org/dc/dcmitype/StillImage" /></cc:Work></rdf:RDF></metadata><defs
     id="defs6"><clipPath
       id="clipPath18"
       clipPathUnits="userSpaceOnUse"><path
         id="path16"
         d="M 0,256 H 256 V 0 H 0 Z" /></clipPath><clipPath
       id="clipPath26"
       clipPathUnits="userSpaceOnUse"><path
         id="path24"
         d="M 4.03647,223.837 H 251.964 V 32.1632 H 4.03647 Z" /></clipPath></defs><g
     transform="matrix(1.3333333,0,0,-1.3333333,0,341.33333)"
     id="g10"><g
       id="g12"><g
         clip-path="url(#clipPath18)"
         id="g14"><g
           id="g20"><g
             id="g22" /><g
             id="g34"><g
               style="opacity:0.5"
               id="g32"
               clip-path="url(#clipPath26)"><g
                 id="g30"
                 transform="translate(128,223.8369)"><path
                   id="path28"
                   style="fill:#ffffff;fill-opacity:1;fill-rule:nonzero;stroke:none"
                   d="m 0,0 c -3.127,0 -6.298,-0.057 -9.422,-0.168 l -73.442,-2.624 c -10.054,-0.358 -19.532,-4.451 -26.688,-11.522 -7.156,-7.071 -11.361,-16.5 -11.839,-26.549 l -2.527,-53.071 c -0.061,-1.263 -0.061,-2.543 0,-3.805 l 2.527,-53.072 c 0.478,-10.048 4.683,-19.477 11.839,-26.549 7.156,-7.072 16.634,-11.163 26.688,-11.523 l 73.442,-2.623 c 3.126,-0.111 6.296,-0.168 9.422,-0.168 3.126,0 6.297,0.057 9.423,0.168 l 73.441,2.623 c 10.054,0.36 19.532,4.451 26.689,11.523 7.155,7.072 11.36,16.501 11.839,26.549 l 2.526,53.072 c 0.061,1.262 0.061,2.542 0,3.805 l -2.526,53.071 c -0.479,10.049 -4.684,19.478 -11.839,26.549 -7.157,7.071 -16.635,11.164 -26.689,11.522 L 9.423,-0.168 C 6.298,-0.057 3.128,0 0,0" /></g></g></g></g><g
           transform="translate(210.5791,42.9492)"
           id="g36"><path
             id="path38"
             style="fill:#d9d9d9;fill-opacity:1;fill-rule:nonzero;stroke:none"
             d="m 0,0 -73.442,-2.623 c -6.089,-0.218 -12.185,-0.218 -18.274,0 L -165.158,0 c -16.63,0.594 -30.03,13.835 -30.821,30.458 l -2.528,53.07 c -0.048,1.015 -0.048,2.031 0,3.045 l 2.528,53.071 c 0.791,16.622 14.191,29.864 30.821,30.458 l 73.442,2.623 c 6.089,0.217 12.185,0.217 18.274,0 L 0,170.102 c 16.63,-0.594 30.029,-13.836 30.821,-30.458 l 2.528,-53.071 c 0.047,-1.014 0.047,-2.03 0,-3.045 L 30.821,30.458 C 30.029,13.835 16.63,0.594 0,0" /></g><g
           transform="translate(148,47.8369)"
           id="g40"><path
             id="path42"
             style="fill:#b3b3b3;fill-opacity:1;fill-rule:nonzero;stroke:none"
             d="m 0,0 h -20 -20 v -7.286 l 10.863,-0.388 c 6.089,-0.218 12.185,-0.218 18.274,0 L 0,-7.286 Z" /></g><g
           transform="translate(203.293,75.293)"
           id="g44"><path
             id="path46"
             style="fill:#b3b3b3;fill-opacity:1;fill-rule:nonzero;stroke:none"
             d="m 0,0 -8,8 1.414,1.414 8,-8 z" /></g><g
           transform="translate(236,70)"
           id="g48"><path
             id="path50"
             style="fill:#d9d9d9;fill-opacity:1;fill-rule:nonzero;stroke:none"
             d="m 0,0 c 0,-9.941 -8.059,-18 -18,-18 -9.941,0 -18,8.059 -18,18 0,9.941 8.059,18 18,18 C -8.059,18 0,9.941 0,0" /></g><g
           transform="translate(218,90)"
           id="g52"><path
             id="path54"
             style="fill:#bfbfbf;fill-opacity:1;fill-rule:nonzero;stroke:none"
             d="m 0,0 c -11.028,0 -20,-8.972 -20,-20 0,-11.028 8.972,-20 20,-20 11.028,0 20,8.972 20,20 C 20,-8.972 11.028,0 0,0 m 0,-2 c 9.941,0 18,-8.059 18,-18 0,-9.941 -8.059,-18 -18,-18 -9.941,0 -18,8.059 -18,18 0,9.941 8.059,18 18,18" /></g><g
           transform="translate(187.2285,213.7217)"
           id="g56"><path
             id="path58"
             style="fill:#b3b3b3;fill-opacity:1;fill-rule:nonzero;stroke:none"
             d="m 0,0 3.777,-33.995 1.989,0.221 -3.745,33.702 z" /></g><g
           transform="translate(36,44.5615)"
           id="g60"><path
             id="path62"
             style="fill:#00ff00;fill-opacity:1;fill-rule:nonzero;stroke:none"
             d="M 0,0 C 1.297,-0.454 2.632,-0.825 4,-1.11 V 7.275 H 0 Z" /></g><g
           transform="translate(64.9937,179.7266)"
           id="g64"><path
             id="path66"
             style="fill:#b3b3b3;fill-opacity:1;fill-rule:nonzero;stroke:none"
             d="M 0,0 3.777,33.995 1.757,33.923 -1.987,0.221 Z" /></g><g
           transform="translate(56,70)"
           id="g68"><path
             id="path70"
             style="fill:#d9d9d9;fill-opacity:1;fill-rule:nonzero;stroke:none"
             d="m 0,0 c 0,-9.941 -8.059,-18 -18,-18 -9.941,0 -18,8.059 -18,18 0,9.941 8.059,18 18,18 C -8.059,18 0,9.941 0,0" /></g><g
           transform="translate(38,90)"
           id="g72"><path
             id="path74"
             style="fill:#bfbfbf;fill-opacity:1;fill-rule:nonzero;stroke:none"
             d="m 0,0 c -11.028,0 -20,-8.972 -20,-20 0,-11.028 8.972,-20 20,-20 11.028,0 20,8.972 20,20 C 20,-8.972 11.028,0 0,0 m 0,-2 c 9.941,0 18,-8.059 18,-18 0,-9.941 -8.059,-18 -18,-18 -9.941,0 -18,8.059 -18,18 0,9.941 8.059,18 18,18" /></g><g
           transform="translate(210,128)"
           id="g76"><path
             id="path78"
             style="fill:#d9d9d9;fill-opacity:1;fill-rule:nonzero;stroke:none"
             d="m 0,0 c 0,-45.287 -36.713,-82 -82,-82 -45.287,0 -82,36.713 -82,82 0,45.287 36.713,82 82,82 C -36.713,82 0,45.287 0,0" /></g><g
           transform="translate(128,212)"
           id="g80"><path
             id="path82"
             style="fill:#bfbfbf;fill-opacity:1;fill-rule:nonzero;stroke:none"
             d="m 0,0 c -46.318,0 -84,-37.682 -84,-84 0,-46.317 37.682,-84 84,-84 46.317,0 84,37.683 84,84 C 84,-37.682 46.317,0 0,0 m 0,-2 c 45.287,0 82,-36.713 82,-82 0,-45.287 -36.713,-82 -82,-82 -45.287,0 -82,36.713 -82,82 0,45.287 36.713,82 82,82" /></g><g
           transform="translate(183,86)"
           id="g84"><path
             id="path86"
             style="fill:#bfbfbf;fill-opacity:1;fill-rule:nonzero;stroke:none"
             d="m 0,0 c 0,-0.553 -0.447,-1 -1,-1 -0.553,0 -1,0.447 -1,1 0,0.553 0.447,1 1,1 0.553,0 1,-0.447 1,-1" /></g><g
           transform="translate(187,90)"
           id="g88"><path
             id="path90"
             style="fill:#bfbfbf;fill-opacity:1;fill-rule:nonzero;stroke:none"
             d="m 0,0 c 0,-0.553 -0.447,-1 -1,-1 -0.553,0 -1,0.447 -1,1 0,0.553 0.447,1 1,1 0.553,0 1,-0.447 1,-1" /></g><g
           transform="translate(191,94)"
           id="g92"><path
             id="path94"
             style="fill:#bfbfbf;fill-opacity:1;fill-rule:nonzero;stroke:none"
             d="m 0,0 c 0,-0.553 -0.447,-1 -1,-1 -0.553,0 -1,0.447 -1,1 0,0.553 0.447,1 1,1 0.553,0 1,-0.447 1,-1" /></g><g
           transform="translate(194,99)"
           id="g96"><path
             id="path98"
             style="fill:#bfbfbf;fill-opacity:1;fill-rule:nonzero;stroke:none"
             d="m 0,0 c 0,-0.553 -0.447,-1 -1,-1 -0.553,0 -1,0.447 -1,1 0,0.553 0.447,1 1,1 0.553,0 1,-0.447 1,-1" /></g><g
           transform="translate(187,82)"
           id="g100"><path
             id="path102"
             style="fill:#bfbfbf;fill-opacity:1;fill-rule:nonzero;stroke:none"
             d="m 0,0 c 0,-0.553 -0.447,-1 -1,-1 -0.553,0 -1,0.447 -1,1 0,0.553 0.447,1 1,1 0.553,0 1,-0.447 1,-1" /></g><g
           transform="translate(191,86)"
           id="g104"><path
             id="path106"
             style="fill:#bfbfbf;fill-opacity:1;fill-rule:nonzero;stroke:none"
             d="m 0,0 c 0,-0.553 -0.447,-1 -1,-1 -0.553,0 -1,0.447 -1,1 0,0.553 0.447,1 1,1 0.553,0 1,-0.447 1,-1" /></g><g
           transform="translate(195,90)"
           id="g108"><path
             id="path110"
             style="fill:#bfbfbf;fill-opacity:1;fill-rule:nonzero;stroke:none"
             d="m 0,0 c 0,-0.553 -0.447,-1 -1,-1 -0.553,0 -1,0.447 -1,1 0,0.553 0.447,1 1,1 0.553,0 1,-0.447 1,-1" /></g><g
           transform="translate(198,95)"
           id="g112"><path
             id="path114"
             style="fill:#bfbfbf;fill-opacity:1;fill-rule:nonzero;stroke:none"
             d="m 0,0 c 0,-0.553 -0.447,-1 -1,-1 -0.553,0 -1,0.447 -1,1 0,0.553 0.447,1 1,1 0.553,0 1,-0.447 1,-1" /></g></g></g></g></svg>
